src/assets/img/purpleContactShadow.svg

<svg width="298" height="451" viewBox="0 0 298 451" fill="none" xmlns="http://www.w3.org/2000/svg">
<g filter="url(#filter0_f_382_3832)">
<path d="M162.789 334.791C163.099 309.144 156.415 274.53 139.973 228.832C156.828 190.922 353.045 372.411 162.789 334.791C161.324 455.815 4.10573 377.182 -18.6139 321.529C-53.0317 237.221 -64.0992 232.846 -98.6688 216.733C-133.238 200.619 -205.106 150.206 -141.53 128.618C-138.568 127.612 -135.91 126.742 -133.53 125.998C-141.993 112.651 -144.433 95.8772 -119.567 78.9754C8.61799 -8.15168 170.967 143.18 124.272 199.262C81.4581 250.681 141.189 330.52 162.789 334.791Z" fill="#4B47FF"/>
</g>
<defs>
<filter id="filter0_f_382_3832" x="-218.883" y="0.530273" width="516.138" height="449.967" filterUnits="userSpaceOnUse" color-interpolation-filters="sRGB">
<feFlood flood-opacity="0" result="BackgroundImageFix"/>
<feBlend mode="normal" in="SourceGraphic" in2="BackgroundImageFix" result="shape"/>
<feGaussianBlur stdDeviation="26" result="effect1_foregroundBlur_382_3832"/>
</filter>
</defs>
</svg>

<svg width="298" height="451" fill="none" xmlns="http://www.w3.org/2000/svg"><g filter="url(#a)"><path d="M162.789 334.791c.31-25.647-6.374-60.261-22.816-105.959 16.855-37.91 213.072 143.579 22.816 105.959-1.465 121.024-158.683 42.391-181.403-13.262-34.418-84.308-45.485-88.683-80.055-104.796-34.569-16.114-106.437-66.527-42.861-88.115a347.047 347.047 0 0 1 8-2.62c-8.463-13.347-10.903-30.12 13.963-47.023C8.618-8.152 170.967 143.18 124.272 199.262c-42.814 51.419 16.917 131.258 38.517 135.529Z" fill="#4B47FF"/></g><defs><filter id="a" x="-218.883" y=".53" width="516.138" height="449.967" filterUnits="userSpaceOnUse" color-interpolation-filters="sRGB"><feFlood flood-opacity="0" result="BackgroundImageFix"/><feBlend in="SourceGraphic" in2="BackgroundImageFix" result="shape"/><feGaussianBlur stdDeviation="26" result="effect1_foregroundBlur_382_3832"/></filter></defs></svg>
